third_party/noto/noto_2/emoji_u1f4f5.svg

<svg enable-background="new 0 0 128 128" version="1.1" viewBox="0 0 128 128" xmlns="http://www.w3.org/2000/svg"><path d="m64 4c-33.14 0-60 26.86-60 60s26.86 60 60 60 60-26.86 60-60-26.86-60-60-60zm50 60c0.04 11.53-3.96 22.71-11.3 31.6l-70.3-70.3c8.89-7.34 20.07-11.34 31.6-11.3 27.61 0 50 22.39 50 50zm-100 0c-0.04-11.53 3.96-22.71 11.3-31.6l70.3 70.3c-8.89 7.34-20.07 11.34-31.6 11.3-27.61 0-50-22.39-50-50z" fill="#c33"/><circle cx="60.1" cy="63.1" r="56.1" fill="#F44336"/><path d="m95.6 102.7c-8.89 7.34-20.07 11.34-31.6 11.3-27.61 0-50-22.39-50-50-0.04-11.53 3.96-22.71 11.3-31.6l7.1-7.1c8.89-7.34 20.07-11.34 31.6-11.3 27.61 0 50 22.39 50 50 0.04 11.53-3.96 22.71-11.3 31.6" fill="#fff"/><path d="m95.6 102.7c-8.89 7.34-20.07 11.34-31.6 11.3-27.61 0-50-22.39-50-50-0.04-11.53 3.96-22.71 11.3-31.6l7.1-7.1c8.89-7.34 20.07-11.34 31.6-11.3 27.61 0 50 22.39 50 50 0.04 11.53-3.96 22.71-11.3 31.6" fill="#231F20"/><path d="m96.4 103.2c-20.49 16.74-50.66 13.7-67.4-6.79-14.41-17.63-14.41-42.97 0-60.61l6.8-6.8c8.53-7.03 19.25-10.85 30.3-10.8 26.45 0 47.9 21.44 47.9 47.9 0 11.04-3.82 21.75-10.8 30.3" fill="#414042"/><path d="m81.8 28.1c-2-0.5-7.2-2.1-17.9-2.1s-16.9 1.8-17.9 2.1c-1.35 0.37-2.3 1.6-2.3 3v65.9c0.03 1.39 0.96 2.61 2.3 3 1.1 0.3 7.2 2.1 17.9 2.1s16-1.6 17.9-2.1c1.35-0.37 2.3-1.6 2.3-3v-65.9c0-1.4-0.95-2.63-2.3-3zm-25 2.4h14.2c0.55 0 1 0.45 1 1s-0.45 1-1 1h-14.2c-0.55 0-1-0.45-1-1s0.45-1 1-1zm-6.9 0c0.55 0 1 0.45 1 1s-0.45 1-1 1-1-0.45-1-1c0.04-0.54 0.46-0.96 1-1zm21.1 66.9h-14.2c-0.55 0-1-0.45-1-1s0.45-1 1-1h14.2c0.55 0 1 0.45 1 1-0.04 0.54-0.46 0.96-1 1zm8.1-5h-30.4c-0.52 0.03-0.97-0.36-1-0.88v-0.12-54.8c0-0.55 0.45-1 1-1h30.4c0.52-0.03 0.97 0.36 1 0.88v0.12 54.8c0 0.55-0.45 1-1 1z" fill="#FAFAFA"/><polyline points="23.4 35.6 95 102.1 97 100.2 30.6 33.4" enable-background="new" fill="#231F20" opacity=".8"/><path d="m103.9 96.8-78.6-77.9-7.1 7.1 78.6 77.9" fill="#F44336"/><path d="m45 10.9c1.7-0.4 4.2-1.6 5.9-1.1 1.09 0.3 1.75 1.4 1.5 2.5-0.37 0.81-1.12 1.37-2 1.5-3.9 0.97-7.68 2.35-11.3 4.1-7.18 3.78-13.38 9.19-18.1 15.8-1.9 2.7-3.4 5.5-5.8 7.8-0.21 0.23-0.49 0.37-0.8 0.4-0.17 0.03-0.35-0.01-0.5-0.1-1.2-0.5-1.4-1.1-1.2-2.3 0.18-1.01 0.52-1.99 1-2.9 1.01-1.76 2.11-3.46 3.3-5.1 1.89-2.91 4.11-5.59 6.6-8 6.8-6.3 15.6-11.1 21.4-12.6z" fill="#FF8A80"/><polygon points="32.4 25.3 30.4 27.3 101.5 98.4 103.3 96.2" fill="#c33"/></svg>

<?xml version="1.0" encoding="utf-8"?>
<!-- Generator: Adobe Illustrator 25.2.3, SVG Export Plug-In . SVG Version: 6.00 Build 0)  -->
<svg version="1.1" id="Layer_1" xmlns="http://www.w3.org/2000/svg" xmlns:xlink="http://www.w3.org/1999/xlink" x="0px" y="0px"
	 viewBox="0 0 128 128" style="enable-background:new 0 0 128 128;" xml:space="preserve">
<g>
	<path style="fill:#CC3333;" d="M64,4C30.86,4,4,30.86,4,64s26.86,60,60,60s60-26.86,60-60S97.14,4,64,4z M114,64
		c0.04,11.53-3.96,22.71-11.3,31.6L32.4,25.3C41.29,17.96,52.47,13.96,64,14C91.61,14,114,36.39,114,64z M14,64
		c-0.04-11.53,3.96-22.71,11.3-31.6l70.3,70.3c-8.89,7.34-20.07,11.34-31.6,11.3C36.39,114,14,91.61,14,64z"/>
	<circle style="fill:#F44336;" cx="60.1" cy="63.1" r="56.1"/>
	<path style="fill:#FFFFFF;" d="M95.6,102.7c-8.89,7.34-20.07,11.34-31.6,11.3c-27.61,0-50-22.39-50-50
		c-0.04-11.53,3.96-22.71,11.3-31.6l7.1-7.1C41.29,17.96,52.47,13.96,64,14c27.61,0,50,22.39,50,50c0.04,11.53-3.96,22.71-11.3,31.6
		"/>
	<path style="fill:#231F20;" d="M95.6,102.7c-8.89,7.34-20.07,11.34-31.6,11.3c-27.61,0-50-22.39-50-50
		c-0.04-11.53,3.96-22.71,11.3-31.6l7.1-7.1C41.29,17.96,52.47,13.96,64,14c27.61,0,50,22.39,50,50c0.04,11.53-3.96,22.71-11.3,31.6
		"/>
	<path style="fill:#414042;" d="M96.4,103.2c-20.49,16.74-50.66,13.7-67.4-6.79C14.59,78.78,14.59,53.44,29,35.8l6.8-6.8
		c8.53-7.03,19.25-10.85,30.3-10.8c26.45,0,47.9,21.44,47.9,47.9c0,11.04-3.82,21.75-10.8,30.3"/>
	<path style="fill:#FAFAFA;" d="M81.8,28.1c-2-0.5-7.2-2.1-17.9-2.1S47,27.8,46,28.1c-1.35,0.37-2.3,1.6-2.3,3V97
		c0.03,1.39,0.96,2.61,2.3,3c1.1,0.3,7.2,2.1,17.9,2.1s16-1.6,17.9-2.1c1.35-0.37,2.3-1.6,2.3-3V31.1
		C84.1,29.7,83.15,28.47,81.8,28.1z M56.8,30.5H71c0.55,0,1,0.45,1,1s-0.45,1-1,1H56.8c-0.55,0-1-0.45-1-1S56.25,30.5,56.8,30.5z
		 M49.9,30.5c0.55,0,1,0.45,1,1s-0.45,1-1,1s-1-0.45-1-1C48.94,30.96,49.36,30.54,49.9,30.5z M71,97.4H56.8c-0.55,0-1-0.45-1-1
		s0.45-1,1-1H71c0.55,0,1,0.45,1,1C71.96,96.94,71.54,97.36,71,97.4z M79.1,92.4H48.7c-0.52,0.03-0.97-0.36-1-0.88
		c0-0.04,0-0.08,0-0.12V36.6c0-0.55,0.45-1,1-1h30.4c0.52-0.03,0.97,0.36,1,0.88c0,0.04,0,0.08,0,0.12v54.8
		C80.1,91.95,79.65,92.4,79.1,92.4z"/>
	<polyline style="opacity:0.8;fill:#231F20;enable-background:new    ;" points="23.4,35.6 95,102.1 97,100.2 30.6,33.4 	"/>
	<path style="fill:#F44336;" d="M103.9,96.8L25.3,18.9L18.2,26l78.6,77.9"/>
	<path style="fill:#FF8A80;" d="M45,10.9c1.7-0.4,4.2-1.6,5.9-1.1c1.09,0.3,1.75,1.4,1.5,2.5c-0.37,0.81-1.12,1.37-2,1.5
		c-3.9,0.97-7.68,2.35-11.3,4.1c-7.18,3.78-13.38,9.19-18.1,15.8c-1.9,2.7-3.4,5.5-5.8,7.8c-0.21,0.23-0.49,0.37-0.8,0.4
		c-0.17,0.03-0.35-0.01-0.5-0.1c-1.2-0.5-1.4-1.1-1.2-2.3c0.18-1.01,0.52-1.99,1-2.9c1.01-1.76,2.11-3.46,3.3-5.1
		c1.89-2.91,4.11-5.59,6.6-8C30.4,17.2,39.2,12.4,45,10.9z"/>
	<polygon style="fill:#CC3333;" points="32.4,25.3 30.4,27.3 101.5,98.4 103.3,96.2 	"/>
</g>
</svg>
